src/svg/uf252-hourglass-2,hourglass-half.svg

<!-- Generated by IcoMoon.io -->
<svg version="1.1" xmlns="http://www.w3.org/2000/svg" width="27" height="32" viewBox="0 0 27 32">
<path d="M25.143 2.286c0 6.607-3.161 11.393-6.661 13.714 3.5 2.321 6.661 7.107 6.661 13.714h1.714c0.321 0 0.571 0.25 0.571 0.571v1.143c0 0.321-0.25 0.571-0.571 0.571h-26.286c-0.321 0-0.571-0.25-0.571-0.571v-1.143c0-0.321 0.25-0.571 0.571-0.571h1.714c0-6.607 3.161-11.393 6.661-13.714-3.5-2.321-6.661-7.107-6.661-13.714h-1.714c-0.321 0-0.571-0.25-0.571-0.571v-1.143c0-0.321 0.25-0.571 0.571-0.571h26.286c0.321 0 0.571 0.25 0.571 0.571v1.143c0 0.321-0.25 0.571-0.571 0.571h-1.714zM22.857 2.286h-18.286c0 2.607 0.589 4.911 1.518 6.857h15.25c0.929-1.946 1.518-4.25 1.518-6.857zM21.839 24c-1.321-3.446-3.696-5.893-6.071-6.857h-4.107c-2.375 0.964-4.75 3.411-6.071 6.857h16.25z"></path>
</svg>

<svg xmlns="http://www.w3.org/2000/svg" width="27" height="32"><path d="M25.143 2.286c0 6.607-3.161 11.393-6.661 13.714 3.5 2.321 6.661 7.107 6.661 13.714h1.714c.321 0 .571.25.571.571v1.143c0 .321-.25.571-.571.571H.571A.564.564 0 0 1 0 31.428v-1.143c0-.321.25-.571.571-.571h1.714c0-6.607 3.161-11.393 6.661-13.714-3.5-2.321-6.661-7.107-6.661-13.714H.571A.564.564 0 0 1 0 1.715V.572C0 .251.25.001.571.001h26.286c.321 0 .571.25.571.571v1.143c0 .321-.25.571-.571.571h-1.714zm-2.286 0H4.571c0 2.607.589 4.911 1.518 6.857h15.25c.929-1.946 1.518-4.25 1.518-6.857zM21.839 24c-1.321-3.446-3.696-5.893-6.071-6.857h-4.107c-2.375.964-4.75 3.411-6.071 6.857h16.25z"/></svg>
